X:1
T:So Long, It's Been Good To Know You
T:So long, its been good to know you
T:Woody Guthrie
C:Woody Guthrie
Z:All Rights Reserved
L:1/4
M:3/4
K:C
V:1 treble 
%%MIDI program 4
V:1
 G |:"C" G2 G | G3/2 C/ C |"G7" F/F/- F F | D2 G/G/ |"C" G3/2 G/ G | E C3/2 C/ |"G7" F E F | %8
w: I've|sung this|song, but I'll|sing it * a-|gain of the|peo- ple I've|met and the|plac- es I've|
w: |sweet- hearts|sat in the|dark and * they|sparked they *|hugged * and|kissed in that|dust- y old|
w: |to your|fam'- ly and|asked them * for|you * *|they all said|take her oh|take her please|
 D2 E/D/ |"C" C C C | E D C |"F" F/F/- F G | A2 A/A/ |"C" G G A | G F E |"G7" D B, D | %16
w: been of *|some of the|trou- bles- that|both- ered * my|mind and a|lot of good|peo- ple that|I've left he-|
w: dark they *|sighed * and|cried * *|hugged * * and|kissed * *|in- stead of|mar- riage they|talked * like|
w: do she *|can't cook or|sew and she|wont scrub * your|floor so I|put on my|hat and tip-|toed out the|
"C" C"^N.C." E F |"C" G3 | E2 G | G A3/2 G/ | G E2 |"Dm7" F3 |"G" D2 D | G A3/2 G/ |"C" G E2 | %25
w: hind say- ing|so|long It's|been good to|know ye'|so|long it's|been good to|know ye,|
w: this Hon- ey|||||||||
w: door, say- ing-|||||||||
 G2 z | c2 c |"F" A A3/2 A/ | c c A/A/ |"C" G3 | G F E |"G7" D2 D | G3- | G3/2 G/ G | G3/2 A/ G | %35
w: so|long, its|been good to|know ye what a|long|time * since|I've been|home|* and I've|got to be|
w: ||||||||||
w: ||||||||||
 F E D |1"C" C3- | C z"^N.C." G :|2"C" C3- | C z G :|3 C3- |"C" C z2 |] %42
w: drift- ing a-|long|* The|long|* went|long||
w: |||||||
w: |||||||

